common/media/svg/icons/chat.svg

<?xml version="1.0" encoding="UTF-8" standalone="no"?>
<svg
   xmlns:dc="http://purl.org/dc/elements/1.1/"
   xmlns:cc="http://creativecommons.org/ns#"
   xmlns:rdf="http://www.w3.org/1999/02/22-rdf-syntax-ns#"
   xmlns:svg="http://www.w3.org/2000/svg"
   xmlns="http://www.w3.org/2000/svg"
   xmlns:sodipodi="http://sodipodi.sourceforge.net/DTD/sodipodi-0.dtd"
   xmlns:inkscape="http://www.inkscape.org/namespaces/inkscape"
   version="1.1"
   x="0px"
   y="0px"
   width="32px"
   height="32px"
   viewBox="0 0 32 32"
   enable-background="new 0 0 32 32"
   xml:space="preserve"
   id="svg2"
   >

<metadata><rdf:RDF>

   <cc:Work rdf:about="">
   <dc:format>image/svg+xml</dc:format>
   <dc:type rdf:resource="http://purl.org/dc/dcmitype/StillImage" />
   <dc:title>PICOL Icon</dc:title>
   <dc:date>2009-03-15</dc:date>
   <dc:creator><cc:Agent><dc:title>Melih Bilgil</dc:title></cc:Agent></dc:creator>
   <dc:rights><cc:Agent><dc:title>Creative Commons BY-SA</dc:title></cc:Agent></dc:rights>
   <dc:publisher><cc:Agent><dc:title>PICOL - Pictorial Communication Language</dc:title></cc:Agent></dc:publisher>
   <dc:identifier>http://blog.picol.org</dc:identifier>
   <dc:source>http://blog.picol.org</dc:source>
   <dc:language>en</dc:language>
   <dc:subject>
     <rdf:Bag>
       <rdf:li>PICOL</rdf:li>
       <rdf:li>icon</rdf:li>
       <rdf:li>icons</rdf:li>
       <rdf:li>sign</rdf:li>
       <rdf:li>GUI</rdf:li>
       <rdf:li>vector</rdf:li>
       <rdf:li>interface</rdf:li>
     </rdf:Bag>
   </dc:subject>
   <dc:description>This is one icon out of all PICOL icons</dc:description>
   <dc:contributor>
       <cc:Agent><dc:title>Melih Bilgil (www.lonja.de), Christopher Adjei (www.boffer.net)</dc:title></cc:Agent></dc:contributor>
   <cc:license rdf:resource="http://creativecommons.org/licenses/by-sa/3.0/" /></cc:Work>
   <cc:License rdf:about="http://creativecommons.org/licenses/by-sa/3.0/">
       <cc:permits rdf:resource="http://creativecommons.org/ns#Reproduction" />
       <cc:permits rdf:resource="http://creativecommons.org/ns#Distribution" />
       <cc:requires rdf:resource="http://creativecommons.org/ns#Notice" />
       <cc:requires rdf:resource="http://creativecommons.org/ns#Attribution" />
       <cc:permits rdf:resource="http://creativecommons.org/ns#DerivativeWorks" />
       <cc:requires rdf:resource="http://creativecommons.org/ns#ShareAlike" /></cc:License>

   </rdf:RDF>
</metadata>

<g id="background">
	<rect x="0" fill="none" width="32" height="32"/>
</g>
<g id="chat">
	<path d="M12,4v4H0v20h2.413l4.002-4H20v-4h5.583l4,4H32V4H12z M18,22H5.583L2,25.583V10h16V22z M30,21.585L26.414,18h-6.415V8H14V6
		h16V21.585z"/>
</g>
</svg>

<?xml version="1.0" encoding="UTF-8" standalone="no"?>
<svg
   xmlns:dc="http://purl.org/dc/elements/1.1/"
   xmlns:cc="http://creativecommons.org/ns#"
   xmlns:rdf="http://www.w3.org/1999/02/22-rdf-syntax-ns#"
   xmlns:svg="http://www.w3.org/2000/svg"
   xmlns="http://www.w3.org/2000/svg"
   xmlns:sodipodi="http://sodipodi.sourceforge.net/DTD/sodipodi-0.dtd"
   xmlns:inkscape="http://www.inkscape.org/namespaces/inkscape"
   version="1.1"
   x="0px"
   y="0px"
   width="32px"
   height="32px"
   viewBox="0 0 32 32"
   enable-background="new 0 0 32 32"
   xml:space="preserve"
   id="svg2"
   inkscape:version="0.48.4 r9939"
   sodipodi:docname="chat.svg"><defs
     id="defs13" /><sodipodi:namedview
     pagecolor="#ffffff"
     bordercolor="#666666"
     borderopacity="1"
     objecttolerance="10"
     gridtolerance="10"
     guidetolerance="10"
     inkscape:pageopacity="0"
     inkscape:pageshadow="2"
     inkscape:window-width="640"
     inkscape:window-height="480"
     id="namedview11"
     showgrid="false"
     inkscape:zoom="7.375"
     inkscape:cx="16"
     inkscape:cy="16"
     inkscape:window-x="53"
     inkscape:window-y="24"
     inkscape:window-maximized="0"
     inkscape:current-layer="svg2" /><metadata
     id="metadata3"><rdf:RDF><cc:Work
         rdf:about=""><dc:format>image/svg+xml</dc:format><dc:type
           rdf:resource="http://purl.org/dc/dcmitype/StillImage" /><dc:title>PICOL Icon</dc:title><dc:date>2009-03-15</dc:date><dc:creator><cc:Agent><dc:title>Melih Bilgil</dc:title></cc:Agent></dc:creator><dc:rights><cc:Agent><dc:title>Creative Commons BY-SA</dc:title></cc:Agent></dc:rights><dc:publisher><cc:Agent><dc:title>PICOL - Pictorial Communication Language</dc:title></cc:Agent></dc:publisher><dc:identifier>http://blog.picol.org</dc:identifier><dc:source>http://blog.picol.org</dc:source><dc:language>en</dc:language><dc:subject><rdf:Bag><rdf:li>PICOL</rdf:li><rdf:li>icon</rdf:li><rdf:li>icons</rdf:li><rdf:li>sign</rdf:li><rdf:li>GUI</rdf:li><rdf:li>vector</rdf:li><rdf:li>interface</rdf:li></rdf:Bag></dc:subject><dc:description>This is one icon out of all PICOL icons</dc:description><dc:contributor><cc:Agent><dc:title>Melih Bilgil (www.lonja.de), Christopher Adjei (www.boffer.net)</dc:title></cc:Agent></dc:contributor><cc:license
           rdf:resource="http://creativecommons.org/licenses/by-sa/3.0/" /></cc:Work><cc:License
         rdf:about="http://creativecommons.org/licenses/by-sa/3.0/"><cc:permits
           rdf:resource="http://creativecommons.org/ns#Reproduction" /><cc:permits
           rdf:resource="http://creativecommons.org/ns#Distribution" /><cc:requires
           rdf:resource="http://creativecommons.org/ns#Notice" /><cc:requires
           rdf:resource="http://creativecommons.org/ns#Attribution" /><cc:permits
           rdf:resource="http://creativecommons.org/ns#DerivativeWorks" /><cc:requires
           rdf:resource="http://creativecommons.org/ns#ShareAlike" /></cc:License></rdf:RDF></metadata><g
     id="background"><rect
       x="0"
       fill="none"
       width="32"
       height="32"
       id="rect6" /></g><path
     id="path9"
     d="M 12,4 V 8 H 0 V 28 H 2.413 L 6.415,24 H 20 v -4 h 5.583 l 4,4 H 32 V 4 H 12 z m 6,18 H 5.583 L 2,25.583 V 10 H 18 V 22 z M 30,21.585 26.414,18 H 19.999 V 8 H 14 V 6 h 16 v 15.585 z" /></svg>
